X:140
T: Die drei Hexen
N: Q1080F
O: Suedosteuropa, Jugoslawien, Gottschee
N: Melodievergleich zu Q0080, anderes Lied "Scheane Greatle" .
R: ???
M: 3/4
L: 1/8
K: F
F2 | A2F2A2 | c4GB | d2c2B2 | A4
A2 | c2c2B2 | A4FF | B2A2G2 | F4

@@@ Tune index: 1195
